!!!!SEGMENT: pl-wtm--r-2139--006_wysocki-kasper-napoleon--la-legerte-n-6.krn
!!!cenid: 18xx:4373
!!!COM: Wysocki, Kasper Napoleon
!!!COM-rismID: pe41024789
!!!CDT: 1810/12/06-1850/09/21
!!!CNT: Polish
!!!GTL: La Légèrté
!!!OTL: N. 6.
!!!OMV: 006
!!!PDT:
!!!AGN: Secular; Waltz
!!!SMS-siglum: PL-Wtm
!!!SMS-shelfmark: R 2139
!!!SMS-shelfwork: 001-006 G
!!!SMS-variant:
!!!SMS-altvar:
!!!NIFC-rismSourceID: 1001139896
!!!NIFC-rismChildID: 1001139905
!!!NIFC-islandoraID: pl-wtm:29947
!!!URL-pdf-islandora: https://repozytorium.nifc.pl/islandora/object/pl-wtm:29947/datastream/PDF/view
!!!URL-scan: https://polish.musicsources.pl/pl/lokalizacje/galeria/rekopisy/6569/4 @EN{Scan on Polish Music Sources Website} @PL{Skany w portalu Dziedzictwo Muzyki Polskiej w otwartym dostępie}
!!!ONB-nifc: UWAGA: skan 4-5
!!!AIN: 2 piano
!!!key: G
!!!OMD: N 6.
**kern	**kern	**dynam
*part2	*part1	*part1
*staff2	*staff1	*
*>[A,A,B,B]	*>[A,A,B,B]	*>[A,A,B,B]
*>A	*>A	*>A
*I"fortepian	*I"fortepian	*
*Ipiano	*Ipiano	*
*ICklav	*ICklav	*
*clefF4	*clefG2	*
*k[f#]	*k[f#]	*
*G:	*G:	*
*M3/4	*M3/4	*
*	*8va	*
=	=	=
!	!LO:TX:b:i:t=leggiero	!
4ryy	8ddd\L	.
*ped	*	*
.	8ddd\J	.
=1	=1	=1
!	!	!LO:DY:rj:t=p.
4GG/	8ddd\L	p
.	8ddd\	.
4B 4G\	8eee\	.
.	8ddd\	.
4D\	8ggg\	.
.	8bbb\J	.
=2	=2	=2
*rep	*	*
4GG/	4dddd\	.
4B 4G\	4r	.
4D\	8ddd\L	.
.	8ddd\J	.
*Xrep	*	*
=3	=3	=3
*rep	*	*
4GG/	8ddd\L	.
.	8ddd\	.
4B 4G\	8eee\	.
.	8ddd\	.
4D\	8ggg\	.
.	8bbb\J	.
*Xrep	*	*
=4	=4	=4
*rep	*	*
4GG/	4dddd\	.
4B 4G\	4r	.
4D\	8ddd\L	.
.	8ddd\J	.
*Xrep	*	*
=5	=5	=5
4DD/	8ddd\L	.
.	8ddd\	.
4c 4A 4F#\	8eee-X\	.
.	8ddd\	.
4D\	8fff#\	.
.	8aaa\J	.
!!LO:LB:g=original
=6	=6	=6
4DD/	4.cccc^^\	.
4c 4A 4F#\	.	.
.	8aaa\L	.
4D\	8eeen\	.
.	8fff#\J	.
=7	=7	=7
4GG/	8ggg\L	.
.	8ggg\	.
4B 4G\	8ggg\	.
.	8ggg\	.
4D\	8fff#\	.
.	8eee\J	.
=8	=8	=8
*rep	*2\right	*
4GG/	2ddd\	.
4B 4G\	.	.
4D\	8ddd\L	.
.	8ddd\J	.
*Xrep	*	*
=9	=9	=9
*rep	*	*
4GG/	8ddd\L	.
.	8ddd\	.
4B 4G\	8eee\	.
.	8ddd\	.
4D\	8ggg\	.
.	8bbb\J	.
*Xrep	*	*
=10	=10	=10
*rep	*	*
4GG/	4dddd\	.
4B 4G\	4r	.
4D\	8ddd\L	.
.	8ddd\J	.
*Xrep	*	*
=11	=11	=11
*rep	*	*
4GG/	8ddd\L	.
.	8ddd\	.
4B 4G\	8eee\	.
.	8ddd\	.
4D\	8ggg\	.
.	8bbb\J	.
*Xrep	*	*
!!LO:LB:g=original
=12	=12	=12
4GG/	2dddd\	.
4B 4G\	.	.
4D\	4bbb\	.
=13	=13	=13
*^	*	*
*	*2\right	*	*
4r	2.AA\	8aaa\L	.
.	.	8aaa\	.
4A 4F# 4D/	.	8aaa\	.
.	.	8aaa\	.
4A 4F# 4D/	.	8dddd\	.
.	.	8fff#\J	.
=14	=14	=14	=14
4r	2.AA\	4.aaa\	.
4A 4G 4E/	.	.	.
.	.	8ggg\L	.
4A 4G 4E/	.	8eee\	.
.	.	8ccc#X\J	.
=15	=15	=15	=15
!	!LO:N:vis=2	!	!
4r	2.AA\	8eee\L	.
.	.	8eee\	.
4A 4G 4C#X/	.	8eee\	.
.	.	8eee\	.
4A 4G 4C#/	.	8fff#\	.
.	.	8eee\J	.
*v	*v	*	*
=16	=16	=16
4A 4F# 4D\	4ddd\	.
4r	4r	.
=:|!	=:|!	=:|!
*>B	*>B	*>B
4r	8ddd\L	f
.	8ddd\J	.
!!LO:LB:g=original
=17	=17	=17
*^	*	*
4r	2.D\	8ddd\L	.
.	.	8ddd\	.
4c 4A 4F#/	.	8ddd\	.
.	.	8ddd\	.
.	.	8qfff#/	.
4c 4A 4F#/	.	8eee\	.
.	.	8ddd\J	.
=18	=18	=18	=18
4r	2.D\	8ddd\L	.
.	.	8ddd\	.
4d 4B 4G/	.	8ddd\	.
.	.	8ddd\	.
.	.	8qfff#/	.
4d 4B 4G/	.	8eee\	.
.	.	8ddd\J	.
=19	=19	=19	=19
.	.	8qddd/	.
4r	2.D\	8ccc\L	.
.	.	8bb\	.
4c 4A 4F#/	.	8aa\	.
.	.	8aa\	.
4c 4A 4F#/	.	8aa\	.
.	.	8eee\J	.
=20	=20	=20	=20
4r	2.D\	8ddd\L	.
.	.	8bb\	.
4d 4B 4G/	.	8gg\	.
.	.	8gg\	.
4d 4B 4G/	.	8gg\	.
.	.	8gg\J	.
=21	=21	=21	=21
!	!LO:N:vis=2	!	!
4r	2.D\	8ddd\L	.
.	.	8ddd\	.
4c 4A 4F#/	.	8ddd\	.
.	.	8ddd\	.
.	.	8qfff#/	.
4c 4A 4F#/	.	8eee\	.
.	.	8ddd\J	.
!!LO:PB:g=original
=22	=22	=22	=22
4r	2.D\	8ddd\L	.
.	.	8ddd\	.
4d 4B 4G/	.	8ddd\	.
.	.	8ddd\	.
.	.	8qfff#/	.
4d 4B 4G/	.	8eee\	.
.	.	8ddd\J	.
=23	=23	=23	=23
.	.	8qddd/	.
4r	2.D\	8ccc\L	.
.	.	8bb\	.
4c 4A 4F#/	.	8aa\	.
.	.	8cccc\	.
4c 4A 4F#/	.	8eee\	.
.	.	8fff#\J	.
*v	*v	*	*
=24	=24	=24
4B 4G\	4ggg\	.
4GG/	4r	.
*	*X8va	*
=:|!	=:|!	=:|!
*-	*-	*-
!!!system-decoration: {(*)}
!!!ENC: Filip Voros
!!!END: 2023-07-12
!!!ENC: Marta Lawrence
!!!END: 2023-07-21
!!!YEC: Copyright 2022 Narodowy Instytut Fryderyka Chopina (https://polishscores.org)
!!!YEM: License CC-BY-4.0 (https://creativecommons.org/licenses/by/4.0)
